;FLAVOR:Marlin
;TIME:531
;Filament used: 4.10011m
;Layer height: 0.9
;MINX:62.563
;MINY:74.55
;MINZ:0.9
;MAXX:157.436
;MAXY:145.45
;MAXZ:4.5
;Generated with Cura_SteamEngine 4.9.1
M140 S60
M105
M190 S60
M104 S230
M105
M109 S230
M82 ;absolute extrusion mode
; Ender 3 Custom Start G-code
G92 E0 ; Reset Extruder
G28 ; Home all axes
G1 Z2.0 F3000 ; Move Z Axis up little to prevent scratching of Heat Bed
G1 X0.1 Y20 Z0.3 F5000.0 ; Move to start position
G1 X0.1 Y200.0 Z0.3 F1500.0 E15 ; Draw the first line
G1 X0.4 Y200.0 Z0.3 F5000.0 ; Move to side a little
G1 X0.4 Y20 Z0.3 F1500.0 E30 ; Draw the second line
G92 E0 ; Reset Extruder
G1 Z2.0 F3000 ; Move Z Axis up little to prevent scratching of Heat Bed
G1 X5 Y20 Z0.3 F5000.0 ; Move over to prevent blob squish
G92 E0
G92 E0
G1 F1500 E-6.5
;LAYER_COUNT:5
;LAYER:0
M107
G0 F6000 X77.462 Y77.782 Z0.9
;TYPE:SKIRT
G1 F1500 E0
G1 F1200 X78.123 Y77.15 E0.30797
G1 X78.836 Y76.578 E0.6158
G1 X79.596 Y76.071 E0.92346
G1 X80.398 Y75.632 E1.23135
G1 X81.235 Y75.265 E1.53913
G1 X82.101 Y74.972 E1.847
G1 X82.989 Y74.756 E2.15476
G1 X83.893 Y74.619 E2.46267
G1 X84.716 Y74.563 E2.74046
G1 X85.33 Y74.55 E2.94728
G1 X101.273 Y74.55 E8.31622
G1 X102.109 Y74.561 E8.59778
G1 X102.817 Y74.591 E8.83642
G1 X103.601 Y74.647 E9.10111
G1 X106.186 Y74.795 E9.97306
G1 X108.749 Y74.869 E10.83653
G1 X111.269 Y74.871 E11.68516
G1 X113.78 Y74.802 E12.53108
G1 X116.881 Y74.619 E13.57719
G1 X117.908 Y74.561 E13.92359
G1 X118.768 Y74.55 E14.21323
G1 X134.442 Y74.551 E19.49159
G1 X135.142 Y74.561 E19.72734
G1 X136.055 Y74.614 E20.03532
G1 X136.959 Y74.747 E20.34303
G1 X137.849 Y74.958 E20.65105
G1 X138.716 Y75.246 E20.95871
G1 X139.555 Y75.609 E21.26656
G1 X140.359 Y76.043 E21.57424
G1 X141.123 Y76.546 E21.88228
G1 X141.839 Y77.115 E22.19026
G1 X142.503 Y77.743 E22.49804
G1 X143.109 Y78.427 E22.80578
G1 X143.653 Y79.161 E23.11345
G1 X144.131 Y79.941 E23.42152
G1 X144.539 Y80.759 E23.72936
G1 X144.741 Y81.244 E23.90628
G1 X145.243 Y82.542 E24.37495
G1 X146.201 Y84.919 E25.23799
G1 X147.216 Y87.245 E26.09262
G1 X148.3 Y89.549 E26.9501
G1 X149.44 Y91.802 E27.80041
G1 X150.638 Y94.019 E28.64904
G1 X151.909 Y96.213 E29.50291
G1 X153.232 Y98.358 E30.35161
G1 X153.792 Y99.205 E30.69355
G1 X153.872 Y99.339 E30.74611
G1 X154.644 Y100.527 E31.22323
G1 X155.075 Y101.234 E31.50207
G1 X155.48 Y101.967 E31.78408
G1 X155.848 Y102.721 E32.06663
G1 X156.179 Y103.496 E32.35042
G1 X156.533 Y104.45 E32.6931
G1 X156.791 Y105.288 E32.98837
G1 X156.967 Y105.968 E33.22491
G1 X157.126 Y106.711 E33.48079
G1 X157.287 Y107.694 E33.81624
G1 X157.39 Y108.686 E34.1521
G1 X157.435 Y109.61 E34.46363
G1 X157.436 Y110.343 E34.71048
G1 X157.403 Y111.128 E34.97506
G1 X157.315 Y112.083 E35.29803
G1 X157.18 Y112.997 E35.60917
G1 X157.04 Y113.712 E35.85452
G1 X156.777 Y114.758 E36.21774
G1 X156.568 Y115.445 E36.45956
G1 X156.229 Y116.383 E36.79544
G1 X155.831 Y117.312 E37.13579
G1 X155.483 Y118.025 E37.40297
G1 X155.082 Y118.755 E37.68345
G1 X154.662 Y119.44 E37.95404
G1 X153.73 Y120.877 E38.53083
G1 X153.522 Y121.19 E38.65739
G1 X152.168 Y123.354 E39.51703
G1 X150.895 Y125.523 E40.36397
G1 X149.666 Y127.758 E41.22291
G1 X148.517 Y129.997 E42.0704
G1 X147.423 Y132.287 E42.92506
G1 X146.388 Y134.619 E43.78426
G1 X145.421 Y136.973 E44.64127
G1 X144.802 Y138.601 E45.2278
G1 X144.565 Y139.175 E45.43693
G1 X144.163 Y139.996 E45.74477
G1 X143.69 Y140.778 E46.05255
G1 X143.151 Y141.516 E46.3603
G1 X142.55 Y142.205 E46.6682
G1 X141.89 Y142.838 E46.97616
G1 X141.178 Y143.411 E47.28393
G1 X140.419 Y143.92 E47.59169
G1 X139.618 Y144.36 E47.89945
G1 X138.781 Y144.729 E48.20749
G1 X137.916 Y145.023 E48.51515
G1 X137.028 Y145.24 E48.82299
G1 X136.124 Y145.379 E49.131
G1 X135.284 Y145.437 E49.41455
G1 X134.67 Y145.45 E49.62137
G1 X118.571 Y145.449 E55.04285
G1 X117.625 Y145.431 E55.36148
G1 X117.159 Y145.407 E55.51862
G1 X116.458 Y145.357 E55.75529
G1 X113.793 Y145.204 E56.65423
G1 X111.301 Y145.131 E57.49379
G1 X108.752 Y145.129 E58.35219
G1 X106.229 Y145.199 E59.20216
G1 X103.132 Y145.38 E60.24688
G1 X102.09 Y145.439 E60.59835
G1 X101.258 Y145.45 E60.87855
G1 X85.558 Y145.449 E66.16567
G1 X84.858 Y145.439 E66.40142
G1 X83.945 Y145.386 E66.7094
G1 X83.041 Y145.253 E67.01711
G1 X82.151 Y145.042 E67.32513
G1 X81.284 Y144.754 E67.63279
G1 X80.445 Y144.391 E67.94064
G1 X79.641 Y143.957 E68.24832
G1 X78.877 Y143.454 E68.55636
G1 X78.161 Y142.885 E68.86435
G1 X77.497 Y142.257 E69.17212
G1 X76.891 Y141.573 E69.47987
G1 X76.347 Y140.839 E69.78753
G1 X75.869 Y140.059 E70.09561
G1 X75.461 Y139.241 E70.40344
G1 X75.259 Y138.756 E70.58037
G1 X74.757 Y137.458 E71.04903
G1 X73.799 Y135.081 E71.91207
G1 X72.783 Y132.753 E72.76746
G1 X71.7 Y130.451 E73.62418
G1 X70.56 Y128.198 E74.4745
G1 X69.37 Y125.997 E75.3171
G1 X68.075 Y123.762 E76.18697
G1 X66.763 Y121.635 E77.02856
G1 X66.206 Y120.791 E77.36911
G1 X66.125 Y120.656 E77.42212
G1 X65.353 Y119.467 E77.89953
G1 X64.925 Y118.766 E78.17612
G1 X64.553 Y118.096 E78.43419
G1 X64.156 Y117.284 E78.73857
G1 X63.848 Y116.574 E78.9992
G1 X63.581 Y115.878 E79.25024
G1 X63.295 Y115.008 E79.55864
G1 X63.069 Y114.176 E79.84898
G1 X62.867 Y113.256 E80.16618
G1 X62.746 Y112.536 E80.41204
G1 X62.657 Y111.832 E80.65101
G1 X62.595 Y111.099 E80.89873
G1 X62.563 Y110.302 E81.16735
G1 X62.573 Y109.316 E81.49941
G1 X62.635 Y108.391 E81.81161
G1 X62.758 Y107.386 E82.15258
G1 X62.927 Y106.445 E82.47454
G1 X63.084 Y105.755 E82.71284
G1 X63.329 Y104.883 E83.01786
G1 X63.586 Y104.109 E83.29251
G1 X63.848 Y103.423 E83.5398
G1 X64.166 Y102.691 E83.80856
G1 X64.518 Y101.973 E84.07785
G1 X64.918 Y101.245 E84.35758
G1 X65.338 Y100.56 E84.62817
G1 X66.27 Y99.123 E85.20496
G1 X66.478 Y98.81 E85.33152
G1 X67.841 Y96.631 E86.19705
G1 X69.105 Y94.477 E87.0381
G1 X70.334 Y92.242 E87.89704
G1 X71.483 Y90.003 E88.74453
G1 X72.577 Y87.713 E89.59919
G1 X73.612 Y85.381 E90.45839
G1 X74.579 Y83.027 E91.3154
G1 X75.206 Y81.378 E91.9095
G1 X75.442 Y80.808 E92.11725
G1 X75.845 Y79.988 E92.42494
G1 X76.319 Y79.206 E92.73289
G1 X76.859 Y78.469 E93.04057
G1 X77.462 Y77.782 E93.3484
G1 F1500 E86.8484
;MESH:Eraser
G0 F6000 X83.96 Y85.514
G0 X85.514 Y85.514
G0 X116.457 Y125.643
G0 X116.902 Y126.39
G0 X117.262 Y127.182
G0 X117.531 Y128.008
G0 X117.688 Y128.775
G0 X118.039 Y134.4
G0 X118.031 Y134.5
;TYPE:WALL-OUTER
G1 F1500 E93.3484
G1 F1200 X117.676 Y134.438 E93.46976
G1 X117.38 Y134.267 E93.58488
G1 X117.153 Y133.997 E93.70367
G1 X117.034 Y133.667 E93.82181
G1 X117.035 Y133.325 E93.93698
G1 X117.405 Y132.289 E94.30744
G1 X117.613 Y131.45 E94.59854
G1 X117.728 Y130.592 E94.89006
G1 X117.745 Y129.728 E95.18107
G1 X117.667 Y128.866 E95.47255
G1 X117.493 Y128.018 E95.76407
G1 X117.225 Y127.196 E96.05522
G1 X116.867 Y126.408 E96.34669
G1 X116.424 Y125.665 E96.638
G1 X115.901 Y124.976 E96.92931
G1 X115.304 Y124.349 E97.22086
G1 X114.642 Y123.794 E97.51177
G1 X113.921 Y123.315 E97.80327
G1 X113.151 Y122.92 E98.09471
G1 X112.343 Y122.612 E98.38591
G1 X111.505 Y122.397 E98.67725
G1 X110.649 Y122.277 E98.96834
G1 X109.784 Y122.253 E99.25974
G1 X108.921 Y122.326 E99.5514
G1 X108.073 Y122.493 E99.84246
G1 X107.248 Y122.755 E100.13396
G1 X106.459 Y123.106 E100.42477
G1 X105.712 Y123.544 E100.71638
G1 X105.019 Y124.063 E101.00795
G1 X104.388 Y124.654 E101.29909
G1 X103.828 Y125.313 E101.59032
G1 X103.343 Y126.03 E101.88183
G1 X102.943 Y126.797 E102.17314
G1 X102.629 Y127.603 E102.46444
G1 X102.408 Y128.439 E102.75564
G1 X102.282 Y129.295 E103.04701
G1 X102.251 Y130.161 E103.33883
G1 X102.317 Y131.022 E103.62963
G1 X102.48 Y131.873 E103.92142
G1 X102.735 Y132.699 E104.21254
G1 X102.965 Y133.325 E104.43713
G1 X102.964 Y133.676 E104.55533
G1 X102.848 Y133.994 E104.66932
G1 X102.62 Y134.267 E104.7891
G1 X102.324 Y134.438 E104.90422
G1 X101.969 Y134.5 E105.02558
G1 X85.5 Y134.5 E110.57166
G1 X85.5 Y117.732 E116.21843
G1 X85.446 Y117.28 E116.37173
G1 X85.285 Y116.841 E116.5292
G1 X85.025 Y116.451 E116.68704
G1 X84.682 Y116.132 E116.84479
G1 X84.274 Y115.901 E117.00268
G1 X83.824 Y115.772 E117.16032
G1 X83.355 Y115.751 E117.31842
G1 X82.896 Y115.838 E117.47575
G1 X82 Y116.185 E117.79932
G1 X81.295 Y116.369 E118.04469
G1 X80.56 Y116.475 E118.29476
G1 X79.831 Y116.498 E118.54038
G1 X79.107 Y116.438 E118.78503
G1 X78.39 Y116.297 E119.03111
G1 X77.702 Y116.08 E119.27406
G1 X77.027 Y115.78 E119.52281
G1 X76.398 Y115.41 E119.76856
G1 X75.82 Y114.977 E120.01177
G1 X75.283 Y114.472 E120.26001
G1 X74.815 Y113.92 E120.50372
G1 X74.407 Y113.31 E120.75085
G1 X74.075 Y112.671 E120.99335
G1 X73.807 Y111.973 E121.24514
G1 X73.627 Y111.277 E121.48724
G1 X73.522 Y110.533 E121.74027
G1 X73.503 Y109.813 E121.98282
G1 X73.565 Y109.089 E122.22753
G1 X73.707 Y108.373 E122.47334
G1 X73.927 Y107.683 E122.71723
G1 X74.222 Y107.024 E122.96038
G1 X74.592 Y106.395 E123.20613
G1 X75.042 Y105.797 E123.45816
G1 X75.541 Y105.271 E123.70232
G1 X76.095 Y104.804 E123.94633
G1 X76.71 Y104.395 E124.19505
G1 X77.352 Y104.064 E124.43829
G1 X78.033 Y103.805 E124.68365
G1 X78.754 Y103.621 E124.93424
G1 X79.477 Y103.521 E125.18003
G1 X80.202 Y103.503 E125.42426
G1 X80.929 Y103.567 E125.67003
G1 X81.643 Y103.712 E125.91538
G1 X82.338 Y103.935 E126.16118
G1 X82.896 Y104.162 E126.36405
G1 X83.355 Y104.249 E126.52137
G1 X83.824 Y104.228 E126.67947
G1 X84.274 Y104.099 E126.83712
G1 X84.682 Y103.868 E126.99501
G1 X85.025 Y103.549 E127.15275
G1 X85.285 Y103.159 E127.3106
G1 X85.446 Y102.72 E127.46806
G1 X85.5 Y102.268 E127.62136
G1 X85.5 Y85.5 E133.26813
G1 X101.968 Y85.5 E138.81388
G1 X102.324 Y85.562 E138.93557
G1 X102.62 Y85.733 E139.05069
G1 X102.848 Y86.006 E139.17047
G1 X102.964 Y86.324 E139.28446
G1 X102.965 Y86.675 E139.40266
G1 X102.595 Y87.711 E139.77313
G1 X102.387 Y88.55 E140.06422
G1 X102.272 Y89.408 E140.35574
G1 X102.254 Y90.273 E140.6471
G1 X102.333 Y91.134 E140.93827
G1 X102.507 Y91.982 E141.22979
G1 X102.775 Y92.804 E141.52095
G1 X103.133 Y93.592 E141.81242
G1 X103.576 Y94.335 E142.10373
G1 X104.099 Y95.024 E142.39503
G1 X104.696 Y95.651 E142.68658
G1 X105.359 Y96.207 E142.97797
G1 X106.079 Y96.685 E143.269
G1 X106.849 Y97.08 E143.56044
G1 X107.657 Y97.388 E143.85164
G1 X108.495 Y97.603 E144.14298
G1 X109.351 Y97.723 E144.43406
G1 X110.216 Y97.747 E144.72547
G1 X111.079 Y97.674 E145.01713
G1 X111.927 Y97.507 E145.30819
G1 X112.752 Y97.245 E145.59969
G1 X113.541 Y96.894 E145.8905
G1 X114.288 Y96.456 E146.18211
G1 X114.98 Y95.937 E146.47341
G1 X115.611 Y95.346 E146.76455
G1 X116.172 Y94.687 E147.056
G1 X116.657 Y93.97 E147.34751
G1 X117.057 Y93.203 E147.63882
G1 X117.371 Y92.397 E147.93012
G1 X117.592 Y91.561 E148.22132
G1 X117.718 Y90.704 E148.51302
G1 X117.748 Y89.84 E148.80416
G1 X117.683 Y88.978 E149.09527
G1 X117.52 Y88.128 E149.38673
G1 X117.265 Y87.301 E149.67817
G1 X117.035 Y86.675 E149.90276
G1 X117.034 Y86.333 E150.01793
G1 X117.153 Y86.003 E150.13606
G1 X117.38 Y85.733 E150.25485
G1 X117.676 Y85.562 E150.36997
G1 X118.031 Y85.5 E150.49133
G1 X134.5 Y85.5 E156.03741
G1 X134.5 Y102.268 E161.68418
G1 X134.554 Y102.72 E161.83748
G1 X134.715 Y103.159 E161.99495
G1 X134.975 Y103.549 E162.15279
G1 X135.318 Y103.868 E162.31054
G1 X135.726 Y104.099 E162.46843
G1 X136.176 Y104.228 E162.62607
G1 X136.645 Y104.249 E162.78417
G1 X137.104 Y104.162 E162.94149
G1 X138 Y103.815 E163.26507
G1 X138.705 Y103.631 E163.51044
G1 X139.44 Y103.525 E163.76051
G1 X140.169 Y103.502 E164.00613
G1 X140.893 Y103.562 E164.25078
G1 X141.61 Y103.703 E164.49686
G1 X142.301 Y103.921 E164.74087
G1 X142.967 Y104.216 E164.98617
G1 X143.602 Y104.59 E165.23434
G1 X144.18 Y105.023 E165.47755
G1 X144.716 Y105.527 E165.72532
G1 X145.18 Y106.074 E165.96687
G1 X145.593 Y106.69 E166.21662
G1 X145.925 Y107.328 E166.45883
G1 X146.193 Y108.027 E166.71093
G1 X146.372 Y108.716 E166.95066
G1 X146.478 Y109.467 E167.20607
G1 X146.497 Y110.187 E167.44862
G1 X146.435 Y110.911 E167.69333
G1 X146.293 Y111.627 E167.93914
G1 X146.073 Y112.317 E168.18303
G1 X145.778 Y112.976 E168.42618
G1 X145.408 Y113.605 E168.67193
G1 X144.96 Y114.2 E168.92275
G1 X144.459 Y114.729 E169.16811
G1 X143.905 Y115.196 E169.41211
G1 X143.29 Y115.605 E169.66084
G1 X142.643 Y115.939 E169.90604
G1 X141.967 Y116.195 E170.14946
G1 X141.246 Y116.379 E170.40005
G1 X140.523 Y116.479 E170.64584
G1 X139.798 Y116.497 E170.89007
G1 X139.071 Y116.433 E171.13584
G1 X138.357 Y116.288 E171.38119
G1 X137.662 Y116.065 E171.62699
G1 X137.104 Y115.838 E171.82986
G1 X136.645 Y115.751 E171.98718
G1 X136.176 Y115.772 E172.14528
G1 X135.726 Y115.901 E172.30293
G1 X135.318 Y116.132 E172.46082
G1 X134.975 Y116.451 E172.61856
G1 X134.715 Y116.841 E172.77641
G1 X134.554 Y117.28 E172.93387
G1 X134.5 Y117.732 E173.08717
G1 X134.5 Y134.5 E178.73394
G1 X118.031 Y134.5 E184.28002
G0 F6000 X117.834 Y134.466
G0 X117.852 Y134.368
G0 X117.506 Y133
;TYPE:SKIN
G1 F1200 X134.165 Y133 E193.00679
G0 F6000 X134.165 Y131.6
G1 F1200 X117.92 Y131.6 E201.51669
G0 F6000 X118.07 Y130.2
G1 F1200 X134.165 Y130.2 E209.94801
G0 F6000 X134.165 Y128.8
G1 F1200 X117.994 Y128.8 E218.41914
G0 F6000 X117.643 Y127.4
G1 F1200 X134.165 Y127.4 E227.07414
G0 F6000 X134.165 Y126
G1 F1200 X117.012 Y126 E236.05969
G0 F6000 X116.004 Y124.6
G1 F1200 X134.165 Y124.6 E245.57328
G0 F6000 X134.165 Y123.2
G1 F1200 X114.351 Y123.2 E255.95279
G0 F6000 X111.512 Y122.358
G0 X110.652 Y122.238
G0 X109.783 Y122.214
G0 X108.916 Y122.287
G0 X105.636 Y123.2
G1 F1200 X85.834 Y123.2 E266.32601
G0 F6000 X85.834 Y121.8
G1 F1200 X134.165 Y121.8 E291.64406
G0 F6000 X134.165 Y120.4
G1 F1200 X85.834 Y120.4 E316.96212
G0 F6000 X85.834 Y119
G1 F1200 X134.165 Y119 E342.28018
G0 F6000 X134.177 Y117.6
G1 F1200 X85.821 Y117.6 E367.61133
G0 F6000 X85.247 Y116.2
G1 F1200 X134.751 Y116.2 E393.54386
G0 F6000 X136.028 Y115.78
G0 X143.853 Y114.8
G1 F1200 X76.142 Y114.8 E429.01407
G0 F6000 X74.87 Y113.4
G1 F1200 X145.139 Y113.4 E465.82428
G0 F6000 X145.822 Y112
G1 F1200 X74.175 Y112 E503.35636
G0 F6000 X73.869 Y110.6
G1 F1200 X146.125 Y110.6 E541.20746
G0 F6000 X146.103 Y109.2
G1 F1200 X73.892 Y109.2 E579.03498
G0 F6000 X74.242 Y107.8
G1 F1200 X145.749 Y107.8 E616.49372
G0 F6000 X144.996 Y106.4
G1 F1200 X75.008 Y106.4 E653.15673
G0 F6000 X76.407 Y105
G1 F1200 X143.592 Y105 E688.3514
G0 F6000 X136.17 Y104.267
G0 X134.608 Y103.6
G1 F1200 X85.394 Y103.6 E714.13201
G0 F6000 X85.835 Y102.2
G1 F1200 X134.165 Y102.2 E739.44954
G0 F6000 X134.165 Y100.8
G1 F1200 X85.835 Y100.8 E764.76707
G0 F6000 X85.835 Y99.4
G1 F1200 X134.165 Y99.4 E790.08461
G0 F6000 X134.165 Y98
G1 F1200 X111.155 Y98 E802.13833
G0 F6000 X108.918 Y98
G1 F1200 X85.835 Y98 E814.23029
G0 F6000 X85.835 Y96.6
G1 F1200 X105.346 Y96.6 E824.45107
G0 F6000 X103.814 Y95.2
G1 F1200 X85.835 Y95.2 E833.86932
G0 F6000 X85.835 Y93.8
G1 F1200 X102.868 Y93.8 E842.79201
G0 F6000 X102.291 Y92.4
G1 F1200 X85.835 Y92.4 E851.41244
G0 F6000 X85.835 Y91
G1 F1200 X101.985 Y91 E859.87257
G0 F6000 X101.933 Y89.6
G1 F1200 X85.835 Y89.6 E868.30546
G0 F6000 X85.835 Y88.2
G1 F1200 X102.129 Y88.2 E876.84102
G0 F6000 X102.564 Y86.8
G1 F1200 X85.835 Y86.8 E885.60446
G1 F1500 E879.10446
G0 F6000 X106.833 Y97.116
G0 X107.645 Y97.426
G0 X108.488 Y97.642
G0 X109.348 Y97.762
G0 X110.217 Y97.786
G0 X111.084 Y97.713
G0 X111.773 Y97.578
G0 X114.654 Y96.6
G1 F1500 E885.60446
G1 F1200 X134.165 Y96.6 E895.82524
G0 F6000 X134.165 Y95.2
G1 F1200 X116.175 Y95.2 E905.24925
G0 F6000 X117.123 Y93.8
G1 F1200 X134.165 Y93.8 E914.17666
G0 F6000 X134.165 Y92.4
G1 F1200 X117.718 Y92.4 E922.79237
G0 F6000 X118.013 Y91
G1 F1200 X134.165 Y91 E931.25355
G0 F6000 X134.165 Y89.6
G1 F1200 X118.065 Y89.6 E939.68749
G0 F6000 X117.874 Y88.2
G1 F1200 X134.165 Y88.2 E948.22148
G0 F6000 X134.165 Y86.8
G1 F1200 X117.437 Y86.8 E956.9844
G1 F1500 E950.4844
G0 F6000 X117.787 Y89.84
G0 X117.757 Y90.707
G0 X117.631 Y91.569
G0 X117.432 Y92.325
G0 X103.994 Y124.6
G1 F1500 E956.9844
G1 F1200 X85.834 Y124.6 E966.49746
G0 F6000 X85.834 Y126
G1 F1200 X102.979 Y126 E975.47882
G0 F6000 X102.347 Y127.4
G1 F1200 X85.834 Y127.4 E984.12911
G0 F6000 X85.834 Y128.8
G1 F1200 X102.015 Y128.8 E992.60548
G0 F6000 X101.918 Y130.2
G1 F1200 X85.834 Y130.2 E1001.03103
G0 F6000 X85.834 Y131.6
