;FLAVOR:Marlin
;TIME:611
;Filament used: 4.18152m
;Layer height: 0.9
;MINX:62.563
;MINY:74.55
;MINZ:0.9
;MAXX:157.436
;MAXY:145.45
;MAXZ:4.5
;Generated with Cura_SteamEngine 4.9.1
M140 S60
M105
M190 S60
M104 S220
M105
M109 S220
M82 ;absolute extrusion mode
; Ender 3 Custom Start G-code
G92 E0 ; Reset Extruder
G28 ; Home all axes
G1 Z2.0 F3000 ; Move Z Axis up little to prevent scratching of Heat Bed
G1 X0.1 Y20 Z0.3 F5000.0 ; Move to start position
G1 X0.1 Y200.0 Z0.3 F1500.0 E15 ; Draw the first line
G1 X0.4 Y200.0 Z0.3 F5000.0 ; Move to side a little
G1 X0.4 Y20 Z0.3 F1500.0 E30 ; Draw the second line
G92 E0 ; Reset Extruder
G1 Z2.0 F3000 ; Move Z Axis up little to prevent scratching of Heat Bed
G1 X5 Y20 Z0.3 F5000.0 ; Move over to prevent blob squish
G92 E0
G92 E0
G1 F1500 E-6.5
;LAYER_COUNT:5
;LAYER:0
M107
G0 F6000 X77.462 Y77.782 Z0.9
;TYPE:SKIRT
G1 F1500 E0
G1 F1200 X78.123 Y77.15 E0.30797
G1 X78.836 Y76.578 E0.6158
G1 X79.596 Y76.071 E0.92346
G1 X80.398 Y75.632 E1.23135
G1 X81.235 Y75.265 E1.53913
G1 X82.101 Y74.972 E1.847
G1 X82.989 Y74.756 E2.15476
G1 X83.893 Y74.619 E2.46267
G1 X84.716 Y74.563 E2.74046
G1 X85.33 Y74.55 E2.94728
G1 X101.273 Y74.55 E8.31622
G1 X102.109 Y74.561 E8.59778
G1 X102.817 Y74.591 E8.83642
G1 X103.601 Y74.647 E9.10111
G1 X106.186 Y74.795 E9.97306
G1 X108.749 Y74.869 E10.83653
G1 X111.269 Y74.871 E11.68516
G1 X113.78 Y74.802 E12.53108
G1 X116.881 Y74.619 E13.57719
G1 X117.908 Y74.561 E13.92359
G1 X118.768 Y74.55 E14.21323
G1 X134.442 Y74.551 E19.49159
G1 X135.142 Y74.561 E19.72734
G1 X136.055 Y74.614 E20.03532
G1 X136.959 Y74.747 E20.34303
G1 X137.849 Y74.958 E20.65105
G1 X138.716 Y75.246 E20.95871
G1 X139.555 Y75.609 E21.26656
G1 X140.359 Y76.043 E21.57424
G1 X141.123 Y76.546 E21.88228
G1 X141.839 Y77.115 E22.19026
G1 X142.503 Y77.743 E22.49804
G1 X143.109 Y78.427 E22.80578
G1 X143.653 Y79.161 E23.11345
G1 X144.131 Y79.941 E23.42152
G1 X144.539 Y80.759 E23.72936
G1 X144.741 Y81.244 E23.90628
G1 X145.243 Y82.542 E24.37495
G1 X146.201 Y84.919 E25.23799
G1 X147.216 Y87.245 E26.09262
G1 X148.3 Y89.549 E26.9501
G1 X149.44 Y91.802 E27.80041
G1 X150.638 Y94.019 E28.64904
G1 X151.909 Y96.213 E29.50291
G1 X153.232 Y98.358 E30.35161
G1 X153.792 Y99.205 E30.69355
G1 X153.872 Y99.339 E30.74611
G1 X154.644 Y100.527 E31.22323
G1 X155.075 Y101.234 E31.50207
G1 X155.48 Y101.967 E31.78408
G1 X155.848 Y102.721 E32.06663
G1 X156.179 Y103.496 E32.35042
G1 X156.533 Y104.45 E32.6931
G1 X156.791 Y105.288 E32.98837
G1 X156.967 Y105.968 E33.22491
G1 X157.126 Y106.711 E33.48079
G1 X157.287 Y107.694 E33.81624
G1 X157.39 Y108.686 E34.1521
G1 X157.435 Y109.61 E34.46363
G1 X157.436 Y110.343 E34.71048
G1 X157.403 Y111.128 E34.97506
G1 X157.315 Y112.083 E35.29803
G1 X157.18 Y112.997 E35.60917
G1 X157.04 Y113.712 E35.85452
G1 X156.777 Y114.758 E36.21774
G1 X156.568 Y115.445 E36.45956
G1 X156.229 Y116.383 E36.79544
G1 X155.831 Y117.312 E37.13579
G1 X155.483 Y118.025 E37.40297
G1 X155.082 Y118.755 E37.68345
G1 X154.662 Y119.44 E37.95404
G1 X153.73 Y120.877 E38.53083
G1 X153.522 Y121.19 E38.65739
G1 X152.168 Y123.354 E39.51703
G1 X150.895 Y125.523 E40.36397
G1 X149.666 Y127.758 E41.22291
G1 X148.517 Y129.997 E42.0704
G1 X147.423 Y132.287 E42.92506
G1 X146.388 Y134.619 E43.78426
G1 X145.421 Y136.973 E44.64127
G1 X144.802 Y138.601 E45.2278
G1 X144.565 Y139.175 E45.43693
G1 X144.163 Y139.996 E45.74477
G1 X143.69 Y140.778 E46.05255
G1 X143.151 Y141.516 E46.3603
G1 X142.55 Y142.205 E46.6682
G1 X141.89 Y142.838 E46.97616
G1 X141.178 Y143.411 E47.28393
G1 X140.419 Y143.92 E47.59169
G1 X139.618 Y144.36 E47.89945
G1 X138.781 Y144.729 E48.20749
G1 X137.916 Y145.023 E48.51515
G1 X137.028 Y145.24 E48.82299
G1 X136.124 Y145.379 E49.131
G1 X135.284 Y145.437 E49.41455
G1 X134.67 Y145.45 E49.62137
G1 X118.571 Y145.449 E55.04285
G1 X117.625 Y145.431 E55.36148
G1 X117.159 Y145.407 E55.51862
G1 X116.458 Y145.357 E55.75529
G1 X113.793 Y145.204 E56.65423
G1 X111.301 Y145.131 E57.49379
G1 X108.752 Y145.129 E58.35219
G1 X106.229 Y145.199 E59.20216
G1 X103.132 Y145.38 E60.24688
G1 X102.09 Y145.439 E60.59835
G1 X101.258 Y145.45 E60.87855
G1 X85.558 Y145.449 E66.16567
G1 X84.858 Y145.439 E66.40142
G1 X83.945 Y145.386 E66.7094
G1 X83.041 Y145.253 E67.01711
G1 X82.151 Y145.042 E67.32513
G1 X81.284 Y144.754 E67.63279
G1 X80.445 Y144.391 E67.94064
G1 X79.641 Y143.957 E68.24832
G1 X78.877 Y143.454 E68.55636
G1 X78.161 Y142.885 E68.86435
G1 X77.497 Y142.257 E69.17212
G1 X76.891 Y141.573 E69.47987
G1 X76.347 Y140.839 E69.78753
G1 X75.869 Y140.059 E70.09561
G1 X75.461 Y139.241 E70.40344
G1 X75.259 Y138.756 E70.58037
G1 X74.757 Y137.458 E71.04903
G1 X73.799 Y135.081 E71.91207
G1 X72.783 Y132.753 E72.76746
G1 X71.7 Y130.451 E73.62418
G1 X70.56 Y128.198 E74.4745
G1 X69.37 Y125.997 E75.3171
G1 X68.075 Y123.762 E76.18697
G1 X66.763 Y121.635 E77.02856
G1 X66.206 Y120.791 E77.36911
G1 X66.125 Y120.656 E77.42212
G1 X65.353 Y119.467 E77.89953
G1 X64.925 Y118.766 E78.17612
G1 X64.553 Y118.096 E78.43419
G1 X64.156 Y117.284 E78.73857
G1 X63.848 Y116.574 E78.9992
G1 X63.581 Y115.878 E79.25024
G1 X63.295 Y115.008 E79.55864
G1 X63.069 Y114.176 E79.84898
G1 X62.867 Y113.256 E80.16618
G1 X62.746 Y112.536 E80.41204
G1 X62.657 Y111.832 E80.65101
G1 X62.595 Y111.099 E80.89873
G1 X62.563 Y110.302 E81.16735
G1 X62.573 Y109.316 E81.49941
G1 X62.635 Y108.391 E81.81161
G1 X62.758 Y107.386 E82.15258
G1 X62.927 Y106.445 E82.47454
G1 X63.084 Y105.755 E82.71284
G1 X63.329 Y104.883 E83.01786
G1 X63.586 Y104.109 E83.29251
G1 X63.848 Y103.423 E83.5398
G1 X64.166 Y102.691 E83.80856
G1 X64.518 Y101.973 E84.07785
G1 X64.918 Y101.245 E84.35758
G1 X65.338 Y100.56 E84.62817
G1 X66.27 Y99.123 E85.20496
G1 X66.478 Y98.81 E85.33152
G1 X67.841 Y96.631 E86.19705
G1 X69.105 Y94.477 E87.0381
G1 X70.334 Y92.242 E87.89704
G1 X71.483 Y90.003 E88.74453
G1 X72.577 Y87.713 E89.59919
G1 X73.612 Y85.381 E90.45839
G1 X74.579 Y83.027 E91.3154
G1 X75.206 Y81.378 E91.9095
G1 X75.442 Y80.808 E92.11725
G1 X75.845 Y79.988 E92.42494
G1 X76.319 Y79.206 E92.73289
G1 X76.859 Y78.469 E93.04057
G1 X77.411 Y77.84 E93.32239
G0 F1080 X77.462 Y77.782
G1 F1500 E86.82239
;MESH:Eraser
G0 F6000 X83.96 Y85.514
G0 X85.514 Y85.514
G0 X102.289 Y88.532
G0 X102.387 Y88.55
;TYPE:WALL-OUTER
G1 F1500 E93.32239
G1 F1200 X102.272 Y89.408 E93.59934
G1 X102.254 Y90.273 E93.87613
G1 X102.333 Y91.134 E94.15274
G1 X102.507 Y91.982 E94.42969
G1 X102.775 Y92.804 E94.70628
G1 X103.133 Y93.592 E94.98318
G1 X103.576 Y94.335 E95.25992
G1 X104.099 Y95.024 E95.53666
G1 X104.696 Y95.651 E95.81364
G1 X105.359 Y96.207 E96.09046
G1 X106.079 Y96.685 E96.36694
G1 X106.849 Y97.08 E96.6438
G1 X107.657 Y97.388 E96.92044
G1 X108.495 Y97.603 E97.19722
G1 X109.351 Y97.723 E97.47375
G1 X110.216 Y97.747 E97.75058
G1 X111.079 Y97.674 E98.02766
G1 X111.927 Y97.507 E98.30417
G1 X112.752 Y97.245 E98.58109
G1 X113.541 Y96.894 E98.85736
G1 X114.288 Y96.456 E99.13439
G1 X114.98 Y95.937 E99.41112
G1 X115.611 Y95.346 E99.68771
G1 X116.172 Y94.687 E99.96459
G1 X116.657 Y93.97 E100.24152
G1 X117.057 Y93.203 E100.51826
G1 X117.371 Y92.397 E100.79499
G1 X117.592 Y91.561 E101.07164
G1 X117.718 Y90.704 E101.34876
G1 X117.748 Y89.84 E101.62533
G1 X117.683 Y88.978 E101.90189
G1 X117.52 Y88.128 E102.17878
G1 X117.265 Y87.301 E102.45564
G1 X117.035 Y86.675 E102.669
G1 X117.034 Y86.333 E102.77842
G1 X117.153 Y86.003 E102.89064
G1 X117.38 Y85.733 E103.00349
G1 X117.676 Y85.562 E103.11286
G1 X118.031 Y85.5 E103.22815
G1 X134.5 Y85.5 E108.49693
G1 X134.5 Y102.268 E113.86136
G1 X134.554 Y102.72 E114.00699
G1 X134.715 Y103.159 E114.15659
G1 X134.975 Y103.549 E114.30654
G1 X135.318 Y103.868 E114.45639
G1 X135.726 Y104.099 E114.60639
G1 X136.176 Y104.228 E114.75615
G1 X136.645 Y104.249 E114.90635
G1 X137.104 Y104.162 E115.05581
G1 X138 Y103.815 E115.3632
G1 X138.705 Y103.631 E115.5963
G1 X139.44 Y103.525 E115.83387
G1 X140.169 Y103.502 E116.06721
G1 X140.893 Y103.562 E116.29963
G1 X141.61 Y103.703 E116.53341
G1 X142.301 Y103.921 E116.76521
G1 X142.967 Y104.216 E116.99825
G1 X143.602 Y104.59 E117.23401
G1 X144.18 Y105.023 E117.46506
G1 X144.716 Y105.527 E117.70044
G1 X145.18 Y106.074 E117.92991
G1 X145.593 Y106.69 E118.16718
G1 X145.925 Y107.328 E118.39727
G1 X146.193 Y108.027 E118.63677
G1 X146.372 Y108.716 E118.86451
G1 X146.478 Y109.467 E119.10715
G1 X146.497 Y110.187 E119.33758
G1 X146.435 Y110.911 E119.57005
G1 X146.293 Y111.627 E119.80357
G1 X146.073 Y112.317 E120.03527
G1 X145.778 Y112.976 E120.26625
G1 X145.408 Y113.605 E120.49972
G1 X144.96 Y114.2 E120.73799
G1 X144.459 Y114.729 E120.97109
G1 X143.905 Y115.196 E121.20289
G1 X143.29 Y115.605 E121.43918
G1 X142.643 Y115.939 E121.67212
G1 X141.967 Y116.195 E121.90338
G1 X141.246 Y116.379 E122.14143
G1 X140.523 Y116.479 E122.37494
G1 X139.798 Y116.497 E122.60695
G1 X139.071 Y116.433 E122.84043
G1 X138.357 Y116.288 E123.07352
G1 X137.662 Y116.065 E123.30703
G1 X137.104 Y115.838 E123.49975
G1 X136.645 Y115.751 E123.64921
G1 X136.176 Y115.772 E123.7994
G1 X135.726 Y115.901 E123.94917
G1 X135.318 Y116.132 E124.09916
G1 X134.975 Y116.451 E124.24902
G1 X134.715 Y116.841 E124.39897
G1 X134.554 Y117.28 E124.54856
G1 X134.5 Y117.732 E124.6942
G1 X134.5 Y134.5 E130.05863
G1 X118.031 Y134.5 E135.32741
G1 X117.676 Y134.438 E135.4427
G1 X117.38 Y134.267 E135.55206
G1 X117.153 Y133.997 E135.66491
G1 X117.034 Y133.667 E135.77714
G1 X117.035 Y133.325 E135.88655
G1 X117.405 Y132.289 E136.2385
G1 X117.613 Y131.45 E136.51504
G1 X117.728 Y130.592 E136.79198
G1 X117.745 Y129.728 E137.06845
G1 X117.667 Y128.866 E137.34535
G1 X117.493 Y128.018 E137.62229
G1 X117.225 Y127.196 E137.89889
G1 X116.867 Y126.408 E138.17578
G1 X116.424 Y125.665 E138.45253
G1 X115.901 Y124.976 E138.72927
G1 X115.304 Y124.349 E139.00624
G1 X114.642 Y123.794 E139.28261
G1 X113.921 Y123.315 E139.55954
G1 X113.151 Y122.92 E139.8364
G1 X112.343 Y122.612 E140.11304
G1 X111.505 Y122.397 E140.38981
G1 X110.649 Y122.277 E140.66634
G1 X109.784 Y122.253 E140.94318
G1 X108.921 Y122.326 E141.22026
G1 X108.073 Y122.493 E141.49676
G1 X107.248 Y122.755 E141.77369
G1 X106.459 Y123.106 E142.04996
G1 X105.712 Y123.544 E142.32699
G1 X105.019 Y124.063 E142.60398
G1 X104.388 Y124.654 E142.88056
G1 X103.828 Y125.313 E143.15723
G1 X103.343 Y126.03 E143.43416
G1 X102.943 Y126.797 E143.71091
G1 X102.629 Y127.603 E143.98764
G1 X102.408 Y128.439 E144.26428
G1 X102.282 Y129.295 E144.54109
G1 X102.251 Y130.161 E144.81831
G1 X102.317 Y131.022 E145.09457
G1 X102.48 Y131.873 E145.37178
G1 X102.735 Y132.699 E145.64834
G1 X102.965 Y133.325 E145.8617
G1 X102.964 Y133.676 E145.97399
G1 X102.848 Y133.994 E146.08228
G1 X102.62 Y134.267 E146.19607
G1 X102.324 Y134.438 E146.30544
G1 X101.969 Y134.5 E146.42073
G1 X85.5 Y134.5 E151.68951
G1 X85.5 Y117.732 E157.05394
G1 X85.446 Y117.28 E157.19957
G1 X85.285 Y116.841 E157.34916
G1 X85.025 Y116.451 E157.49912
G1 X84.682 Y116.132 E157.64897
G1 X84.274 Y115.901 E157.79897
G1 X83.824 Y115.772 E157.94873
G1 X83.355 Y115.751 E158.09893
G1 X82.896 Y115.838 E158.24838
G1 X82 Y116.185 E158.55578
G1 X81.295 Y116.369 E158.78888
G1 X80.56 Y116.475 E159.02645
G1 X79.831 Y116.498 E159.25979
G1 X79.107 Y116.438 E159.49221
G1 X78.39 Y116.297 E159.72598
G1 X77.702 Y116.08 E159.95678
G1 X77.027 Y115.78 E160.19309
G1 X76.398 Y115.41 E160.42656
G1 X75.82 Y114.977 E160.6576
G1 X75.283 Y114.472 E160.89343
G1 X74.815 Y113.92 E161.12496
G1 X74.407 Y113.31 E161.35974
G1 X74.075 Y112.671 E161.59011
G1 X73.807 Y111.973 E161.82931
G1 X73.627 Y111.277 E162.0593
G1 X73.522 Y110.533 E162.29968
G1 X73.503 Y109.813 E162.53011
G1 X73.565 Y109.089 E162.76258
G1 X73.707 Y108.373 E162.9961
G1 X73.927 Y107.683 E163.2278
G1 X74.222 Y107.024 E163.45878
G1 X74.592 Y106.395 E163.69225
G1 X75.042 Y105.797 E163.93168
G1 X75.541 Y105.271 E164.16363
G1 X76.095 Y104.804 E164.39544
G1 X76.71 Y104.395 E164.63172
G1 X77.352 Y104.064 E164.86281
G1 X78.033 Y103.805 E165.0959
G1 X78.754 Y103.621 E165.33395
G1 X79.477 Y103.521 E165.56746
G1 X80.202 Y103.503 E165.79947
G1 X80.929 Y103.567 E166.03295
G1 X81.643 Y103.712 E166.26604
G1 X82.338 Y103.935 E166.49955
G1 X82.896 Y104.162 E166.69227
G1 X83.355 Y104.249 E166.84173
G1 X83.824 Y104.228 E166.99192
G1 X84.274 Y104.099 E167.14169
G1 X84.682 Y103.868 E167.29168
G1 X85.025 Y103.549 E167.44154
G1 X85.285 Y103.159 E167.59149
G1 X85.446 Y102.72 E167.74108
G1 X85.5 Y102.268 E167.88672
G1 X85.5 Y85.5 E173.25115
G1 X101.968 Y85.5 E178.51961
G1 X102.324 Y85.562 E178.63521
G1 X102.62 Y85.733 E178.74458
G1 X102.848 Y86.006 E178.85837
G1 X102.964 Y86.324 E178.96666
G1 X102.965 Y86.675 E179.07895
G1 X102.595 Y87.711 E179.4309
G1 X102.405 Y88.475 E179.68276
G0 F1080 X102.387 Y88.55
G0 F6000 X102.334 Y88.946
G1 F1500 E173.18276
G0 F6000 X102.235 Y88.932
G0 X102.215 Y90.274
G0 X102.294 Y91.139
G0 X102.469 Y91.992
G0 X102.738 Y92.818
G0 X103.098 Y93.61
G0 X103.543 Y94.357
G0 X104.069 Y95.049
G0 X104.669 Y95.68
G0 X105.336 Y96.239
G0 X106.059 Y96.719
G0 X106.833 Y97.116
G0 X107.645 Y97.426
G0 X108.488 Y97.642
G0 X109.348 Y97.762
G0 X110.217 Y97.786
G0 X111.084 Y97.713
G0 X111.936 Y97.545
G0 X112.766 Y97.282
G0 X134.222 Y86.704
;TYPE:SKIN
G1 F1500 E179.68276
G1 F1200 X133.294 Y85.777 E180.36988
G0 F6000 X131.314 Y85.777
G1 F1200 X134.222 Y88.684 E182.52385
G0 F6000 X134.222 Y90.664
G1 F1200 X129.334 Y85.777 E186.14466
G0 F6000 X127.354 Y85.777
G1 F1200 X134.222 Y92.644 E191.23233
G0 F6000 X134.222 Y94.624
G1 F1200 X125.374 Y85.777 E197.78683
G0 F6000 X123.395 Y85.777
G1 F1200 X134.222 Y96.604 E205.80782
G0 F6000 X134.222 Y98.584
G1 F1200 X121.415 Y85.777 E215.29565
G0 F6000 X119.435 Y85.777
G1 F1200 X134.222 Y100.564 E226.25033
G0 F6000 X134.257 Y102.579
G1 F1200 X117.602 Y85.924 E238.58888
G0 F6000 X117.794 Y88.095
G1 F1200 X144.244 Y114.546 E258.18425
G0 F6000 X145.156 Y113.477
G1 F1200 X136.184 Y104.506 E264.83062
G0 F6000 X137.834 Y104.176
G1 F1200 X145.828 Y112.17 E270.75283
G0 F6000 X146.187 Y110.549
G1 F1200 X139.441 Y103.803 E275.75048
G0 F6000 X141.611 Y103.993
G1 F1200 X145.997 Y108.379 E278.99977
G0 F6000 X143.105 Y115.387
G1 F1200 X118.009 Y90.29 E297.59205
G0 F6000 X117.757 Y92.018
G1 F1200 X141.711 Y115.973 E315.33831
G0 F6000 X139.973 Y116.214
G1 F1200 X117.229 Y93.47 E332.18778
G0 F6000 X116.489 Y94.71
G1 F1200 X137.464 Y115.685 E347.72673
G0 F6000 X135.505 Y115.706
G1 F1200 X115.566 Y95.767 E362.49817
G0 F6000 X114.479 Y96.66
G1 F1200 X134.493 Y116.674 E377.32518
G0 F6000 X134.222 Y118.383
G1 F1200 X113.192 Y97.353 E392.90487
G0 F6000 X111.694 Y97.835
G1 F1200 X134.222 Y120.363 E409.59433
G0 F6000 X134.222 Y122.342
G1 F1200 X109.895 Y98.016 E427.61617
G0 F6000 X107.539 Y97.64
G1 F1200 X134.222 Y124.322 E447.38341
G0 F6000 X134.222 Y126.302
G1 F1200 X93.696 Y85.777 E477.40599
G0 F6000 X91.716 Y85.777
G1 F1200 X134.222 Y128.282 E508.89541
G0 F6000 X134.222 Y130.262
G1 F1200 X89.736 Y85.777 E541.85168
G0 F6000 X87.756 Y85.777
G1 F1200 X134.222 Y132.242 E576.27479
G0 F6000 X134.222 Y134.222
G1 F1200 X85.776 Y85.776 E612.16513
G0 F6000 X85.776 Y87.756
G1 F1200 X132.242 Y134.222 E646.58861
G0 F6000 X130.262 Y134.222
G1 F1200 X85.776 Y89.736 E679.54525
G0 F6000 X85.776 Y91.715
G1 F1200 X128.282 Y134.222 E711.03542
G0 F6000 X126.302 Y134.222
G1 F1200 X85.776 Y93.695 E741.05873
G0 F6000 X85.776 Y95.675
G1 F1200 X112.459 Y122.359 E760.82671
G0 F6000 X110.103 Y121.982
G1 F1200 X85.776 Y97.655 E778.84893
G0 F6000 X85.776 Y99.635
G1 F1200 X108.304 Y122.164 E795.53875
G0 F6000 X106.807 Y122.646
G1 F1200 X85.776 Y101.615 E811.11919
G0 F6000 X85.505 Y103.324
G1 F1200 X105.521 Y123.34 E825.94767
G0 F6000 X104.431 Y124.23
G1 F1200 X84.493 Y104.292 E840.71838
G0 F6000 X82.534 Y104.313
G1 F1200 X103.509 Y125.288 E856.25732
G0 F6000 X102.77 Y126.528
G1 F1200 X80.026 Y103.784 E873.1068
G0 F6000 X78.287 Y104.026
G1 F1200 X102.241 Y127.98 E890.85268
G0 F6000 X101.99 Y129.708
G1 F1200 X76.893 Y104.612 E909.44496
G0 F6000 X75.754 Y105.452
G1 F1200 X102.205 Y131.903 E929.0407
G0 F6000 X102.396 Y134.075
G1 F1200 X85.741 Y117.42 E941.37926
G0 F6000 X85.777 Y119.435
G1 F1200 X100.564 Y134.222 E952.33393
G0 F6000 X98.584 Y134.222
G1 F1200 X85.777 Y121.415 E961.82177
