;FLAVOR:Marlin
;TIME:702
;Filament used: 4.18254m
;Layer height: 0.9
;MINX:62.563
;MINY:74.55
;MINZ:0.9
;MAXX:157.436
;MAXY:145.45
;MAXZ:4.5
;Generated with Cura_SteamEngine 4.9.1
M140 S60
M105
M190 S60
M104 S220
M105
M109 S220
M82 ;absolute extrusion mode
; Ender 3 Custom Start G-code
G92 E0 ; Reset Extruder
G28 ; Home all axes
G1 Z2.0 F3000 ; Move Z Axis up little to prevent scratching of Heat Bed
G1 X0.1 Y20 Z0.3 F5000.0 ; Move to start position
G1 X0.1 Y200.0 Z0.3 F1500.0 E15 ; Draw the first line
G1 X0.4 Y200.0 Z0.3 F5000.0 ; Move to side a little
G1 X0.4 Y20 Z0.3 F1500.0 E30 ; Draw the second line
G92 E0 ; Reset Extruder
G1 Z2.0 F3000 ; Move Z Axis up little to prevent scratching of Heat Bed
G1 X5 Y20 Z0.3 F5000.0 ; Move over to prevent blob squish
G92 E0
G92 E0
G1 F1500 E-6.5
;LAYER_COUNT:5
;LAYER:0
M107
G0 F6000 X77.462 Y77.782 Z0.9
;TYPE:SKIRT
G1 F1500 E0
G1 F1200 X78.123 Y77.15 E0.30797
G1 X78.836 Y76.578 E0.6158
G1 X79.596 Y76.071 E0.92346
G1 X80.398 Y75.632 E1.23135
G1 X81.235 Y75.265 E1.53913
G1 X82.101 Y74.972 E1.847
G1 X82.989 Y74.756 E2.15476
G1 X83.893 Y74.619 E2.46267
G1 X84.716 Y74.563 E2.74046
G1 X85.33 Y74.55 E2.94728
G1 X101.273 Y74.55 E8.31622
G1 X102.109 Y74.561 E8.59778
G1 X102.817 Y74.591 E8.83642
G1 X103.601 Y74.647 E9.10111
G1 X106.186 Y74.795 E9.97306
G1 X108.749 Y74.869 E10.83653
G1 X111.269 Y74.871 E11.68516
G1 X113.78 Y74.802 E12.53108
G1 X116.881 Y74.619 E13.57719
G1 X117.908 Y74.561 E13.92359
G1 X118.768 Y74.55 E14.21323
G1 X134.442 Y74.551 E19.49159
G1 X135.142 Y74.561 E19.72734
G1 X136.055 Y74.614 E20.03532
G1 X136.959 Y74.747 E20.34303
G1 X137.849 Y74.958 E20.65105
G1 X138.716 Y75.246 E20.95871
G1 X139.555 Y75.609 E21.26656
G1 X140.359 Y76.043 E21.57424
G1 X141.123 Y76.546 E21.88228
G1 X141.839 Y77.115 E22.19026
G1 X142.503 Y77.743 E22.49804
G1 X143.109 Y78.427 E22.80578
G1 X143.653 Y79.161 E23.11345
G1 X144.131 Y79.941 E23.42152
G1 X144.539 Y80.759 E23.72936
G1 X144.741 Y81.244 E23.90628
G1 X145.243 Y82.542 E24.37495
G1 X146.201 Y84.919 E25.23799
G1 X147.216 Y87.245 E26.09262
G1 X148.3 Y89.549 E26.9501
G1 X149.44 Y91.802 E27.80041
G1 X150.638 Y94.019 E28.64904
G1 X151.909 Y96.213 E29.50291
G1 X153.232 Y98.358 E30.35161
G1 X153.792 Y99.205 E30.69355
G1 X153.872 Y99.339 E30.74611
G1 X154.644 Y100.527 E31.22323
G1 X155.075 Y101.234 E31.50207
G1 X155.48 Y101.967 E31.78408
G1 X155.848 Y102.721 E32.06663
G1 X156.179 Y103.496 E32.35042
G1 X156.533 Y104.45 E32.6931
G1 X156.791 Y105.288 E32.98837
G1 X156.967 Y105.968 E33.22491
G1 X157.126 Y106.711 E33.48079
G1 X157.287 Y107.694 E33.81624
G1 X157.39 Y108.686 E34.1521
G1 X157.435 Y109.61 E34.46363
G1 X157.436 Y110.343 E34.71048
G1 X157.403 Y111.128 E34.97506
G1 X157.315 Y112.083 E35.29803
G1 X157.18 Y112.997 E35.60917
G1 X157.04 Y113.712 E35.85452
G1 X156.777 Y114.758 E36.21774
G1 X156.568 Y115.445 E36.45956
G1 X156.229 Y116.383 E36.79544
G1 X155.831 Y117.312 E37.13579
G1 X155.483 Y118.025 E37.40297
G1 X155.082 Y118.755 E37.68345
G1 X154.662 Y119.44 E37.95404
G1 X153.73 Y120.877 E38.53083
G1 X153.522 Y121.19 E38.65739
G1 X152.168 Y123.354 E39.51703
G1 X150.895 Y125.523 E40.36397
G1 X149.666 Y127.758 E41.22291
G1 X148.517 Y129.997 E42.0704
G1 X147.423 Y132.287 E42.92506
G1 X146.388 Y134.619 E43.78426
G1 X145.421 Y136.973 E44.64127
G1 X144.802 Y138.601 E45.2278
G1 X144.565 Y139.175 E45.43693
G1 X144.163 Y139.996 E45.74477
G1 X143.69 Y140.778 E46.05255
G1 X143.151 Y141.516 E46.3603
G1 X142.55 Y142.205 E46.6682
G1 X141.89 Y142.838 E46.97616
G1 X141.178 Y143.411 E47.28393
G1 X140.419 Y143.92 E47.59169
G1 X139.618 Y144.36 E47.89945
G1 X138.781 Y144.729 E48.20749
G1 X137.916 Y145.023 E48.51515
G1 X137.028 Y145.24 E48.82299
G1 X136.124 Y145.379 E49.131
G1 X135.284 Y145.437 E49.41455
G1 X134.67 Y145.45 E49.62137
G1 X118.571 Y145.449 E55.04285
G1 X117.625 Y145.431 E55.36148
G1 X117.159 Y145.407 E55.51862
G1 X116.458 Y145.357 E55.75529
G1 X113.793 Y145.204 E56.65423
G1 X111.301 Y145.131 E57.49379
G1 X108.752 Y145.129 E58.35219
G1 X106.229 Y145.199 E59.20216
G1 X103.132 Y145.38 E60.24688
G1 X102.09 Y145.439 E60.59835
G1 X101.258 Y145.45 E60.87855
G1 X85.558 Y145.449 E66.16567
G1 X84.858 Y145.439 E66.40142
G1 X83.945 Y145.386 E66.7094
G1 X83.041 Y145.253 E67.01711
G1 X82.151 Y145.042 E67.32513
G1 X81.284 Y144.754 E67.63279
G1 X80.445 Y144.391 E67.94064
G1 X79.641 Y143.957 E68.24832
G1 X78.877 Y143.454 E68.55636
G1 X78.161 Y142.885 E68.86435
G1 X77.497 Y142.257 E69.17212
G1 X76.891 Y141.573 E69.47987
G1 X76.347 Y140.839 E69.78753
G1 X75.869 Y140.059 E70.09561
G1 X75.461 Y139.241 E70.40344
G1 X75.259 Y138.756 E70.58037
G1 X74.757 Y137.458 E71.04903
G1 X73.799 Y135.081 E71.91207
G1 X72.783 Y132.753 E72.76746
G1 X71.7 Y130.451 E73.62418
G1 X70.56 Y128.198 E74.4745
G1 X69.37 Y125.997 E75.3171
G1 X68.075 Y123.762 E76.18697
G1 X66.763 Y121.635 E77.02856
G1 X66.206 Y120.791 E77.36911
G1 X66.125 Y120.656 E77.42212
G1 X65.353 Y119.467 E77.89953
G1 X64.925 Y118.766 E78.17612
G1 X64.553 Y118.096 E78.43419
G1 X64.156 Y117.284 E78.73857
G1 X63.848 Y116.574 E78.9992
G1 X63.581 Y115.878 E79.25024
G1 X63.295 Y115.008 E79.55864
G1 X63.069 Y114.176 E79.84898
G1 X62.867 Y113.256 E80.16618
G1 X62.746 Y112.536 E80.41204
G1 X62.657 Y111.832 E80.65101
G1 X62.595 Y111.099 E80.89873
G1 X62.563 Y110.302 E81.16735
G1 X62.573 Y109.316 E81.49941
G1 X62.635 Y108.391 E81.81161
G1 X62.758 Y107.386 E82.15258
G1 X62.927 Y106.445 E82.47454
G1 X63.084 Y105.755 E82.71284
G1 X63.329 Y104.883 E83.01786
G1 X63.586 Y104.109 E83.29251
G1 X63.848 Y103.423 E83.5398
G1 X64.166 Y102.691 E83.80856
G1 X64.518 Y101.973 E84.07785
G1 X64.918 Y101.245 E84.35758
G1 X65.338 Y100.56 E84.62817
G1 X66.27 Y99.123 E85.20496
G1 X66.478 Y98.81 E85.33152
G1 X67.841 Y96.631 E86.19705
G1 X69.105 Y94.477 E87.0381
G1 X70.334 Y92.242 E87.89704
G1 X71.483 Y90.003 E88.74453
G1 X72.577 Y87.713 E89.59919
G1 X73.612 Y85.381 E90.45839
G1 X74.579 Y83.027 E91.3154
G1 X75.206 Y81.378 E91.9095
G1 X75.442 Y80.808 E92.11725
G1 X75.845 Y79.988 E92.42494
G1 X76.319 Y79.206 E92.73289
G1 X76.859 Y78.469 E93.04057
G1 X77.411 Y77.84 E93.32239
G0 F1080 X77.462 Y77.782
G1 F1500 E86.82239
;MESH:Eraser
G0 F6000 X83.96 Y85.514
G0 X85.514 Y85.514
G0 X116.457 Y125.643
G0 X116.902 Y126.39
G0 X117.262 Y127.182
G0 X117.531 Y128.008
G0 X117.688 Y128.775
G0 X118.039 Y134.4
G0 X118.031 Y134.5
;TYPE:WALL-OUTER
G1 F1500 E93.32239
G1 F1200 X117.676 Y134.438 E93.43768
G1 X117.38 Y134.267 E93.54705
G1 X117.153 Y133.997 E93.6599
G1 X117.034 Y133.667 E93.77213
G1 X117.035 Y133.325 E93.88154
G1 X117.405 Y132.289 E94.23348
G1 X117.613 Y131.45 E94.51002
G1 X117.728 Y130.592 E94.78697
G1 X117.745 Y129.728 E95.06343
G1 X117.667 Y128.866 E95.34033
G1 X117.493 Y128.018 E95.61728
G1 X117.225 Y127.196 E95.89387
G1 X116.867 Y126.408 E96.17077
G1 X116.424 Y125.665 E96.44751
G1 X115.901 Y124.976 E96.72425
G1 X115.304 Y124.349 E97.00123
G1 X114.642 Y123.794 E97.27759
G1 X113.921 Y123.315 E97.55452
G1 X113.151 Y122.92 E97.83138
G1 X112.343 Y122.612 E98.10802
G1 X111.505 Y122.397 E98.3848
G1 X110.649 Y122.277 E98.66133
G1 X109.784 Y122.253 E98.93817
G1 X108.921 Y122.326 E99.21525
G1 X108.073 Y122.493 E99.49175
G1 X107.248 Y122.755 E99.76867
G1 X106.459 Y123.106 E100.04494
G1 X105.712 Y123.544 E100.32197
G1 X105.019 Y124.063 E100.59896
G1 X104.388 Y124.654 E100.87555
G1 X103.828 Y125.313 E101.15222
G1 X103.343 Y126.03 E101.42915
G1 X102.943 Y126.797 E101.70589
G1 X102.629 Y127.603 E101.98263
G1 X102.408 Y128.439 E102.25927
G1 X102.282 Y129.295 E102.53607
G1 X102.251 Y130.161 E102.8133
G1 X102.317 Y131.022 E103.08956
G1 X102.48 Y131.873 E103.36676
G1 X102.735 Y132.699 E103.64332
G1 X102.965 Y133.325 E103.85668
G1 X102.964 Y133.676 E103.96897
G1 X102.848 Y133.994 E104.07727
G1 X102.62 Y134.267 E104.19106
G1 X102.324 Y134.438 E104.30042
G1 X101.969 Y134.5 E104.41571
G1 X85.5 Y134.5 E109.68449
G1 X85.5 Y117.732 E115.04892
G1 X85.446 Y117.28 E115.19456
G1 X85.285 Y116.841 E115.34415
G1 X85.025 Y116.451 E115.4941
G1 X84.682 Y116.132 E115.64396
G1 X84.274 Y115.901 E115.79395
G1 X83.824 Y115.772 E115.94372
G1 X83.355 Y115.751 E116.09391
G1 X82.896 Y115.838 E116.24337
G1 X82 Y116.185 E116.55076
G1 X81.295 Y116.369 E116.78386
G1 X80.56 Y116.475 E117.02144
G1 X79.831 Y116.498 E117.25478
G1 X79.107 Y116.438 E117.48719
G1 X78.39 Y116.297 E117.72097
G1 X77.702 Y116.08 E117.95176
G1 X77.027 Y115.78 E118.18808
G1 X76.398 Y115.41 E118.42154
G1 X75.82 Y114.977 E118.65259
G1 X75.283 Y114.472 E118.88842
G1 X74.815 Y113.92 E119.11994
G1 X74.407 Y113.31 E119.35472
G1 X74.075 Y112.671 E119.5851
G1 X73.807 Y111.973 E119.8243
G1 X73.627 Y111.277 E120.05429
G1 X73.522 Y110.533 E120.29467
G1 X73.503 Y109.813 E120.52509
G1 X73.565 Y109.089 E120.75756
G1 X73.707 Y108.373 E120.99109
G1 X73.927 Y107.683 E121.22278
G1 X74.222 Y107.024 E121.45377
G1 X74.592 Y106.395 E121.68723
G1 X75.042 Y105.797 E121.92666
G1 X75.541 Y105.271 E122.15862
G1 X76.095 Y104.804 E122.39042
G1 X76.71 Y104.395 E122.62671
G1 X77.352 Y104.064 E122.85779
G1 X78.033 Y103.805 E123.09088
G1 X78.754 Y103.621 E123.32894
G1 X79.477 Y103.521 E123.56244
G1 X80.202 Y103.503 E123.79446
G1 X80.929 Y103.567 E124.02794
G1 X81.643 Y103.712 E124.26102
G1 X82.338 Y103.935 E124.49453
G1 X82.896 Y104.162 E124.68726
G1 X83.355 Y104.249 E124.83671
G1 X83.824 Y104.228 E124.98691
G1 X84.274 Y104.099 E125.13667
G1 X84.682 Y103.868 E125.28667
G1 X85.025 Y103.549 E125.43652
G1 X85.285 Y103.159 E125.58648
G1 X85.446 Y102.72 E125.73607
G1 X85.5 Y102.268 E125.8817
G1 X85.5 Y85.5 E131.24614
G1 X101.968 Y85.5 E136.51459
G1 X102.324 Y85.562 E136.6302
G1 X102.62 Y85.733 E136.73956
G1 X102.848 Y86.006 E136.85335
G1 X102.964 Y86.324 E136.96165
G1 X102.965 Y86.675 E137.07394
G1 X102.595 Y87.711 E137.42588
G1 X102.387 Y88.55 E137.70242
G1 X102.272 Y89.408 E137.97937
G1 X102.254 Y90.273 E138.25616
G1 X102.333 Y91.134 E138.53277
G1 X102.507 Y91.982 E138.80971
G1 X102.775 Y92.804 E139.08631
G1 X103.133 Y93.592 E139.36321
G1 X103.576 Y94.335 E139.63995
G1 X104.099 Y95.024 E139.91669
G1 X104.696 Y95.651 E140.19366
G1 X105.359 Y96.207 E140.47048
G1 X106.079 Y96.685 E140.74697
G1 X106.849 Y97.08 E141.02383
G1 X107.657 Y97.388 E141.30047
G1 X108.495 Y97.603 E141.57724
G1 X109.351 Y97.723 E141.85377
G1 X110.216 Y97.747 E142.13061
G1 X111.079 Y97.674 E142.40769
G1 X111.927 Y97.507 E142.68419
G1 X112.752 Y97.245 E142.96112
G1 X113.541 Y96.894 E143.23739
G1 X114.288 Y96.456 E143.51442
G1 X114.98 Y95.937 E143.79115
G1 X115.611 Y95.346 E144.06774
G1 X116.172 Y94.687 E144.34461
G1 X116.657 Y93.97 E144.62154
G1 X117.057 Y93.203 E144.89829
G1 X117.371 Y92.397 E145.17502
G1 X117.592 Y91.561 E145.45166
G1 X117.718 Y90.704 E145.72878
G1 X117.748 Y89.84 E146.00536
G1 X117.683 Y88.978 E146.28191
G1 X117.52 Y88.128 E146.5588
G1 X117.265 Y87.301 E146.83567
G1 X117.035 Y86.675 E147.04903
G1 X117.034 Y86.333 E147.15844
G1 X117.153 Y86.003 E147.27067
G1 X117.38 Y85.733 E147.38352
G1 X117.676 Y85.562 E147.49288
G1 X118.031 Y85.5 E147.60817
G1 X134.5 Y85.5 E152.87695
G1 X134.5 Y102.268 E158.24139
G1 X134.554 Y102.72 E158.38702
G1 X134.715 Y103.159 E158.53661
G1 X134.975 Y103.549 E158.68657
G1 X135.318 Y103.868 E158.83642
G1 X135.726 Y104.099 E158.98642
G1 X136.176 Y104.228 E159.13618
G1 X136.645 Y104.249 E159.28637
G1 X137.104 Y104.162 E159.43583
G1 X138 Y103.815 E159.74323
G1 X138.705 Y103.631 E159.97633
G1 X139.44 Y103.525 E160.2139
G1 X140.169 Y103.502 E160.44724
G1 X140.893 Y103.562 E160.67966
G1 X141.61 Y103.703 E160.91343
G1 X142.301 Y103.921 E161.14524
G1 X142.967 Y104.216 E161.37827
G1 X143.602 Y104.59 E161.61404
G1 X144.18 Y105.023 E161.84509
G1 X144.716 Y105.527 E162.08046
G1 X145.18 Y106.074 E162.30994
G1 X145.593 Y106.69 E162.5472
G1 X145.925 Y107.328 E162.7773
G1 X146.193 Y108.027 E163.01679
G1 X146.372 Y108.716 E163.24454
G1 X146.478 Y109.467 E163.48718
G1 X146.497 Y110.187 E163.7176
G1 X146.435 Y110.911 E163.95007
G1 X146.293 Y111.627 E164.1836
G1 X146.073 Y112.317 E164.41529
G1 X145.778 Y112.976 E164.64628
G1 X145.408 Y113.605 E164.87974
G1 X144.96 Y114.2 E165.11802
G1 X144.459 Y114.729 E165.35111
G1 X143.905 Y115.196 E165.58292
G1 X143.29 Y115.605 E165.81921
G1 X142.643 Y115.939 E166.05215
G1 X141.967 Y116.195 E166.2834
G1 X141.246 Y116.379 E166.52146
G1 X140.523 Y116.479 E166.75496
G1 X139.798 Y116.497 E166.98698
G1 X139.071 Y116.433 E167.22046
G1 X138.357 Y116.288 E167.45355
G1 X137.662 Y116.065 E167.68706
G1 X137.104 Y115.838 E167.87978
G1 X136.645 Y115.751 E168.02924
G1 X136.176 Y115.772 E168.17943
G1 X135.726 Y115.901 E168.32919
G1 X135.318 Y116.132 E168.47919
G1 X134.975 Y116.451 E168.62904
G1 X134.715 Y116.841 E168.779
G1 X134.554 Y117.28 E168.92859
G1 X134.5 Y117.732 E169.07422
G1 X134.5 Y134.5 E174.43866
G1 X118.109 Y134.5 E179.68248
G0 F1080 X118.031 Y134.5
G0 F6000 X117.676 Y134.438
G0 X117.642 Y134.418
G1 F1500 E173.18248
G0 F6000 X117.692 Y134.333
G0 X117.784 Y129.727
G0 X117.706 Y128.861
G0 X117.531 Y128.008
G0 X117.262 Y127.182
G0 X116.902 Y126.39
G0 X116.457 Y125.643
G0 X115.931 Y124.951
G0 X115.331 Y124.32
G0 X114.665 Y123.762
G0 X113.941 Y123.281
G0 X113.167 Y122.884
G0 X112.355 Y122.574
G0 X111.512 Y122.358
G0 X110.652 Y122.238
G0 X109.783 Y122.214
G0 X108.916 Y122.287
G0 X108.064 Y122.455
G0 X107.234 Y122.718
G0 X86.704 Y134.222
;TYPE:SKIN
G1 F1500 E179.68248
G1 F1200 X85.777 Y133.294 E180.3696
G0 F6000 X85.777 Y131.314
G1 F1200 X88.684 Y134.222 E182.52357
G0 F6000 X90.664 Y134.222
G1 F1200 X85.777 Y129.334 E186.14439
G0 F6000 X85.777 Y127.354
G1 F1200 X92.644 Y134.222 E191.23205
G0 F6000 X94.624 Y134.222
G1 F1200 X85.777 Y125.374 E197.78656
G0 F6000 X85.777 Y123.395
G1 F1200 X96.604 Y134.222 E205.80754
G0 F6000 X98.584 Y134.222
G1 F1200 X85.777 Y121.415 E215.29537
G0 F6000 X85.777 Y119.435
G1 F1200 X100.564 Y134.222 E226.25005
G0 F6000 X102.396 Y134.075
G1 F1200 X85.741 Y117.42 E238.5886
G0 F6000 X85.055 Y116.426
G0 X83.814 Y115.493
G1 F1200 X74.843 Y106.521 E245.23497
G0 F6000 X75.754 Y105.452
G1 F1200 X102.205 Y131.903 E264.83071
G0 F6000 X101.99 Y129.708
G1 F1200 X76.893 Y104.612 E283.423
G0 F6000 X78.287 Y104.026
G1 F1200 X102.241 Y127.98 E301.16888
G0 F6000 X102.77 Y126.528
G1 F1200 X80.026 Y103.784 E318.01836
G0 F6000 X82.534 Y104.313
G1 F1200 X103.509 Y125.288 E333.5573
G0 F6000 X104.431 Y124.23
G1 F1200 X84.493 Y104.292 E348.328
G0 F6000 X85.505 Y103.324
G1 F1200 X105.521 Y123.34 E363.15649
G0 F6000 X106.807 Y122.646
G1 F1200 X85.776 Y101.615 E378.73692
G0 F6000 X85.776 Y99.635
G1 F1200 X108.304 Y122.164 E395.42675
G0 F6000 X110.103 Y121.982
G1 F1200 X85.776 Y97.655 E413.44896
G0 F6000 X85.776 Y95.675
G1 F1200 X112.459 Y122.359 E433.21695
G0 F6000 X114.665 Y123.762
G0 X115.331 Y124.32
G0 X115.931 Y124.951
G0 X117.623 Y127.523
G1 F1200 X124.322 Y134.222 E438.17978
G0 F6000 X122.342 Y134.222
G1 F1200 X118.017 Y129.896 E441.38425
G0 F6000 X117.836 Y131.695
G1 F1200 X120.363 Y134.222 E443.25633
G0 F6000 X118.383 Y134.222
G1 F1200 X117.369 Y133.209 E444.00716
G0 F6000 X126.302 Y134.222
G1 F1200 X85.776 Y93.695 E474.03048
G0 F6000 X85.776 Y91.715
G1 F1200 X128.282 Y134.222 E505.52064
G0 F6000 X130.262 Y134.222
G1 F1200 X85.776 Y89.736 E538.47728
G0 F6000 X85.776 Y87.756
G1 F1200 X132.242 Y134.222 E572.90077
G0 F6000 X134.222 Y134.222
G1 F1200 X85.776 Y85.776 E608.7911
G0 F6000 X87.756 Y85.777
G1 F1200 X134.222 Y132.242 E643.21422
G0 F6000 X134.222 Y130.262
G1 F1200 X89.736 Y85.777 E676.17048
G0 F6000 X91.716 Y85.777
G1 F1200 X134.222 Y128.282 E707.65991
G0 F6000 X134.222 Y126.302
G1 F1200 X93.696 Y85.777 E737.68248
G0 F6000 X95.676 Y85.777
G1 F1200 X102.375 Y92.476 E742.64531
G0 F6000 X101.98 Y90.1
G1 F1200 X97.656 Y85.777 E745.8483
G0 F6000 X99.636 Y85.777
G1 F1200 X102.162 Y88.303 E747.71964
G0 F6000 X102.629 Y86.79
G1 F1200 X101.616 Y85.777 E748.4701
G0 F6000 X102.294 Y91.139
G0 X102.469 Y91.992
G0 X102.738 Y92.818
G0 X103.098 Y93.61
G0 X103.543 Y94.357
G0 X104.069 Y95.049
G0 X104.669 Y95.68
G0 X105.209 Y96.132
G0 X107.539 Y97.64
G1 F1200 X134.222 Y124.322 E768.23735
G0 F6000 X134.222 Y122.342
G1 F1200 X109.895 Y98.016 E786.25919
G0 F6000 X111.694 Y97.835
G1 F1200 X134.222 Y120.363 E802.94864
G0 F6000 X134.222 Y118.383
